src/icons/social-googleplus.svg

<svg xmlns="http://www.w3.org/2000/svg" width="512" height="512" viewBox="0 0 512 512">
    <path d="M244.9 265.1l-14.6-11-.1-.1c-4.6-3.7-8-6.6-8-11.8 0-5.6 4-9.4 8.8-13.9l.4-.3c16.1-12.3 35.9-27.5 35.9-59.9 0-21.6-9.6-35.9-18.7-46.3H259l48.3-26.4H200.1c-20.3 0-50.4 2.6-76 22.9l-.1.1c-17.5 14.5-28 35.8-28 56.7 0 17 7 33.8 19.2 46.1 17.2 17.3 38.8 20.9 53.9 20.9 1.2 0 2.4 0 3.6-.1-.7 2.4-1 5.1-1 8.3 0 8.8 2.9 15.5 6.5 21-19.2 1.6-46.7 5.2-68.1 17.9-31.6 18.2-34.2 45-34.2 52.7 0 30.7 28.7 61.7 92.8 61.7 73.5 0 112-40 112-79.5.2-29.8-18.1-44.6-35.8-59zm-100.8-109c0-10.8 2.4-18.9 7.4-24.8 5.2-6.3 14.6-10.6 23.3-10.6 16 0 26.4 12 32.5 22.1 7.4 12.5 11.9 29 11.9 43.1 0 3.9 0 16.1-8.2 23.9-5.6 5.4-15.1 9.1-22.9 9.1-16.4 0-26.9-11.8-32.7-21.7-8.3-14.1-11.3-30.5-11.3-41.1zm97.3 183.2c0 22-20.2 35.8-52.8 35.8-38.7 0-64.5-16.5-64.5-41.1 0-20.9 17.3-29.6 30.4-34.2 15.2-4.9 35.5-5.8 40.2-5.8 3.1 0 4.9 0 7 .1 29.4 20.2 39.7 28.9 39.7 45.2z"/>
    <path d="M373.3 157.1V94.5H346v62.6h-64.2v27.3H346v65.1h27.3v-65.1h62.6v-27.3z"/>
</svg>

<?xml version="1.0" encoding="UTF-8"?>
<svg width="512px" height="512px" viewBox="0 0 512 512" version="1.1" xmlns="http://www.w3.org/2000/svg" xmlns:xlink="http://www.w3.org/1999/xlink">
    <!-- Generator: Sketch 62 (91390) - https://sketch.com -->
    <title>social-googleplus</title>
    <desc>Created with Sketch.</desc>
    <g id="social-googleplus" stroke="none" stroke-width="1" fill="none" fill-rule="evenodd">
        <path d="M244.9,265.1 L230.3,254.1 L230.2,254 C225.6,250.3 222.2,247.4 222.2,242.2 C222.2,236.6 226.2,232.8 231,228.3 L231.4,228 C247.5,215.7 267.3,200.5 267.3,168.1 C267.3,146.5 257.7,132.2 248.6,121.8 L259,121.8 L307.3,95.4 L200.1,95.4 C179.8,95.4 149.7,98 124.1,118.3 L124,118.4 C106.5,132.9 96,154.2 96,175.1 C96,192.1 103,208.9 115.2,221.2 C132.4,238.5 154,242.1 169.1,242.1 C170.3,242.1 171.5,242.1 172.7,242 C172,244.4 171.7,247.1 171.7,250.3 C171.7,259.1 174.6,265.8 178.2,271.3 C159,272.9 131.5,276.5 110.1,289.2 C78.5,307.4 75.9,334.2 75.9,341.9 C75.9,372.6 104.6,403.6 168.7,403.6 C242.2,403.6 280.7,363.6 280.7,324.1 C280.9,294.3 262.6,279.5 244.9,265.1 L244.9,265.1 Z M144.1,156.1 C144.1,145.3 146.5,137.2 151.5,131.3 C156.7,125 166.1,120.7 174.8,120.7 C190.8,120.7 201.2,132.7 207.3,142.8 C214.7,155.3 219.2,171.8 219.2,185.9 C219.2,189.8 219.2,202 211,209.8 C205.4,215.2 195.9,218.9 188.1,218.9 C171.7,218.9 161.2,207.1 155.4,197.2 C147.1,183.1 144.1,166.7 144.1,156.1 L144.1,156.1 Z M241.4,339.3 C241.4,361.3 221.2,375.1 188.6,375.1 C149.9,375.1 124.1,358.6 124.1,334 C124.1,313.1 141.4,304.4 154.5,299.8 C169.7,294.9 190,294 194.7,294 C197.8,294 199.6,294 201.7,294.1 C231.1,314.3 241.4,323 241.4,339.3 Z" id="Shape" fill="#000000" fill-rule="nonzero"></path>
        <polygon id="Path" fill="#000000" fill-rule="nonzero" points="373.3 157.1 373.3 94.5 346 94.5 346 157.1 281.8 157.1 281.8 184.4 346 184.4 346 249.5 373.3 249.5 373.3 184.4 435.9 184.4 435.9 157.1"></polygon>
    </g>
</svg>
